src/icons/0087_tile_a.svg

<svg data-name="Layer 1" xmlns="http://www.w3.org/2000/svg" viewBox="0 0 48 48"><path d="M17 34.1h13.9V48H17zm-17 0h13.9V48H0zm34.1 0H48V48H34.1zM17 0h13.9v13.9H17zM0 0h13.9v13.9H0zm34.1 0H48v13.9H34.1zM17 17h13.9v13.9H17zM0 17h13.9v13.9H0zm34.1 0H48v13.9H34.1z"/></svg>

<svg id="Layer_1" data-name="Layer 1" xmlns="http://www.w3.org/2000/svg" viewBox="0 0 48 48"><title>0087_tile_a</title><path d="M17,34.1H30.9V48H17Zm-17,0H13.9V48H0Zm34.1,0H48V48H34.1ZM17,0H30.9V13.9H17ZM0,0H13.9V13.9H0ZM34.1,0H48V13.9H34.1ZM17,17H30.9V30.9H17ZM0,17H13.9V30.9H0Zm34.1,0H48V30.9H34.1Z"/></svg>
